mysyte/MOSS2/app/img/inst_icon.svg

<svg xmlns="http://www.w3.org/2000/svg" viewBox="0 0 26.485 26.478"><path data-name="Path 2" class="cls-1" d="M13.236 18.62a5.384 5.384 0 1 1 5.384-5.384 5.383 5.383 0 0 1-5.384 5.384zM26.382 6.711a8.812 8.812 0 0 0-.558-3 5.011 5.011 0 0 0-1.204-1.859A4.933 4.933 0 0 0 22.761.647a8.977 8.977 0 0 0-3-.558C18.063.019 17.55 0 13.236 0s-4.82.019-6.525.1a8.974 8.974 0 0 0-2.993.547 5.011 5.011 0 0 0-1.859 1.205A4.933 4.933 0 0 0 .654 3.711a8.977 8.977 0 0 0-.558 3C.019 8.416 0 8.929 0 13.236s.019 4.82.1 6.525a8.812 8.812 0 0 0 .558 3 5.011 5.011 0 0 0 1.201 1.859 4.933 4.933 0 0 0 1.859 1.205 8.977 8.977 0 0 0 3 .558c1.7.077 2.211.1 6.525.1s4.82-.019 6.525-.1a8.812 8.812 0 0 0 3-.558 5.011 5.011 0 0 0 1.859-1.205 4.933 4.933 0 0 0 1.205-1.859 8.977 8.977 0 0 0 .558-3c.077-1.7.1-2.211.1-6.525s-.031-4.82-.108-6.525zM13.236 21.53a8.294 8.294 0 1 1 8.294-8.294 8.3 8.3 0 0 1-8.294 8.294zm8.621-14.973a1.936 1.936 0 1 1 1.936-1.936 1.934 1.934 0 0 1-1.936 1.936z"/></svg>

<svg xmlns="http://www.w3.org/2000/svg" viewBox="0 0 26.485 26.478">
  <defs>
  </defs>
  <path id="Path_2" data-name="Path 2" class="cls-1" d="M13.236,18.62a5.384,5.384,0,1,1,5.384-5.384A5.383,5.383,0,0,1,13.236,18.62ZM26.382,6.711a8.812,8.812,0,0,0-.558-3A5.011,5.011,0,0,0,24.62,1.852,4.933,4.933,0,0,0,22.761.647a8.977,8.977,0,0,0-3-.558C18.063.019,17.55,0,13.236,0S8.416.019,6.711.1A8.974,8.974,0,0,0,3.718.647,5.011,5.011,0,0,0,1.859,1.852,4.933,4.933,0,0,0,.654,3.711a8.977,8.977,0,0,0-.558,3C.019,8.416,0,8.929,0,13.236s.019,4.82.1,6.525a8.812,8.812,0,0,0,.558,3A5.011,5.011,0,0,0,1.859,24.62a4.933,4.933,0,0,0,1.859,1.205,8.977,8.977,0,0,0,3,.558c1.7.077,2.211.1,6.525.1s4.82-.019,6.525-.1a8.812,8.812,0,0,0,3-.558,5.011,5.011,0,0,0,1.859-1.205,4.933,4.933,0,0,0,1.205-1.859,8.977,8.977,0,0,0,.558-3c.077-1.7.1-2.211.1-6.525S26.459,8.416,26.382,6.711ZM13.236,21.53a8.294,8.294,0,1,1,8.294-8.294A8.3,8.3,0,0,1,13.236,21.53ZM21.857,6.557a1.936,1.936,0,1,1,1.936-1.936A1.934,1.934,0,0,1,21.857,6.557Z"/>
</svg>
